src/assets/heart-empty.svg

<svg height="10" viewBox="0 0 13 10" width="13" xmlns="http://www.w3.org/2000/svg"><path d="m9.75.5c-1.1705161 0-2.13419419.58441911-3.04923247 1.51203213-.14872723.15077108-.28837121.30270328-.41788699.45646169-.09718433-.16939586-.20939107-.33789486-.3364716-.50547359-.73158382-.96472592-1.62552316-1.46302023-2.69640894-1.46302023-.82771347 0-1.52459669.25335024-2.00969564.71979153-.47827302.45987791-.74030436 1.12028466-.74030436 1.90520847 0 1.67093598 2.0013612 3.67198261 6.00210824 6.28051274 3.89474796-2.49651201 5.99789176-4.56362265 5.99789176-6.28051274 0-.78492381-.2620313-1.44533056-.7403044-1.90520847-.4850989-.46644129-1.1819821-.71979153-2.0096956-.71979153z" fill="none" stroke="#000"/></svg>

<?xml version="1.0" encoding="UTF-8"?>
<svg width="13px" height="10px" viewBox="0 0 13 10" version="1.1" xmlns="http://www.w3.org/2000/svg" xmlns:xlink="http://www.w3.org/1999/xlink">
    <title>heart copy 4</title>
    <g id="kinopio" stroke="none" stroke-width="1" fill="none" fill-rule="evenodd">
        <path d="M9.75,0.5 C8.5794839,0.5 7.61580581,1.08441911 6.70076753,2.01203213 C6.5520403,2.16280321 6.41239632,2.31473541 6.28288054,2.46849382 C6.18569621,2.29909796 6.07348947,2.13059896 5.94640894,1.96302023 C5.21482512,0.998294309 4.32088578,0.5 3.25,0.5 C2.42228653,0.5 1.72540331,0.753350236 1.24030436,1.21979153 C0.762031336,1.67966944 0.5,2.34007619 0.5,3.125 C0.5,4.79593598 2.5013612,6.79698261 6.50210824,9.40551274 C10.3968562,6.90900073 12.5,4.84189009 12.5,3.125 C12.5,2.34007619 12.2379687,1.67966944 11.7596956,1.21979153 C11.2745967,0.753350236 10.5777135,0.5 9.75,0.5 Z" id="heart-copy-4" stroke="#000000"></path>
    </g>
</svg>
